X:1
T:[ID 2-50b]
T:[ID 2-50b]
T:Bezeichnung standardisiert: Menuett Men\"uet 10.
T:Urheber unbekannt Datum in der hier transkribierten schriftlichen Quelle: 1767
C:Urheber unbekannt
C:Datum in der hier transkribierten schriftlichen Quelle: 1767
L:1/8
M:3/4
K:D
V:1 treble 
V:1
 D2 D2 D2 | (3DCB, A,4 | DFABAG | F2 E2 D2 | (3dcB B4 | (3cBA A4 | c2 cBAD | C6 :: A2 A2 A2 | %9
 (3GFD E4 | FAcf ac' | c2 BA DC | (3fed e2 g2 | (3edc d2 f2 | GBdBGE | F6 :| %16

